X:1
T:Attainment, 87.87 D
T:Attainment, 87.87 D
T:John Robson Sweney, 1878
T:Public Domain Courtesy of the Cyber Hymnal™
C:John Robson Sweney, 1878
Z:Public Domain
Z:Courtesy of the Cyber Hymnal™
%%score 1 ( 2 3 )
L:1/8
Q:1/4=91
M:3/4
K:Bb
V:1 treble 
V:2 bass 
V:3 bass 
V:1
 [B,D]>[CE] | [DF]3 [DF] [Fd]>[Ec] | ([Ec][DB]) [B,D]2 [DF]>[FB] | [FA]3 [EG] [DF]>[CE] | %4
 [B,D]4 [B,D]>[CE] | [DF]3 [DF] [Fd]>[Ec] | ([Ec][DB]) [B,D]2 [DF]>[FB] | [FA]3 [EG] [EA]>[Ec] | %8
 [DB]3 [DF] [Fd]>[Ec] | [Ec]3 [EF] [Ec]>[DB] | [DB]4 [FA]>[EG] | [DF]3 [CE] [B,D]>[DF] | %12
 [DB]4 [B,D]>[CE] | [DF]3 [DF] [Fd]>[Ec] | [Ec][DB] [B,D]2 [DF]>[FB] | %15
 [FA]3 [EG] [EA]>!fermata![Ec] | [DB]4 |] %17
V:2
 [B,,F,]>[B,,F,] | [B,,B,]3 [B,,B,] [B,,B,]>[B,,F,] | [B,,F,]2 [B,,F,]2 [B,,B,]>[D,B,] | %3
 [F,C]3 [F,A,] F,>[F,,F,] | [B,,F,]4 [B,,F,]>[B,,F,] | [B,,B,]3 [B,,B,] [B,,B,]>[B,,F,] | %6
 [B,,F,]2 [B,,F,]2 [B,,B,]>[D,B,] | [F,C]3 [F,C] [F,C]>[F,A,] | [B,,B,]3 [B,,B,] [F,B,]>[F,A,] | %9
 [F,A,]3 [F,A,] [B,,B,]>[B,,F,] | [B,,F,]4 F,>F, | F,3 [F,,F,] [B,,F,]>[B,,F,] | %12
 [B,,F,]4 [B,,F,]>[B,,F,] | [B,,B,]3 [B,,B,] [B,,B,]>[B,,F,] | [B,,F,]2 [B,,F,]2 [B,,B,]>[D,B,] | %15
 [F,C]3 [F,C] [F,C]>!fermata![F,A,] | [B,,B,]4 |] %17
V:3
 x2 | x6 | x6 | x4 F,3/2 x/ | x6 | x6 | x6 | x6 | x6 | x6 | x4 F,>F, | F,3 x3 | x6 | x6 | x6 | x6 | %16
 x4 |] %17

